X:1
T: The Lady Helen's Jig
C:
R:Jig
Q:180
K:G
M:6/8
L:1/16
D2|G4B2 c2B2A2|G6D4G2|E2F2G2 D2G2B2|d2c2B2 A2B2c2|Bcd2B2 c2B2A2|G6D4G2|E2F2G2 FGA2F2|G6G4D2|
G4B2 c2B2A2|G6D4G2|E2F2G2 D2G2B2|d2c2B2 A2B2c2|Bcd2B2 c2B2A2|G6D4G2|E2F2G2 FGA2F2|G6G4F2|
E4B,2 B,2E2F2|G6E4G2|F4E2 D2E2F2|G2A2B2 A2B2c2|B2c2d2 c2B2A2|G6D4G2|E2F2G2 FGA2F2|G6G4F2|
E4B,2 B,2E2F2|G6E4G2|F4E2 D2E2F2|G2A2B2 A2B2c2|B2c2d2 c2B2A2|G6D4G2|E2F2G2 FGA2F2|G6G4||
